X: 32
T:My Love is Like a Red Red Frog
% Nottingham Music Database
S:Kevin Briggs
M:3/4
L:1/4
K:D
A/2F/2|"D"D2D|"A7/e"E2F|"D/f+"d2c|"G"B2A|"G"B2A|"Em"Bd2|"A7"e3|"A7"def|
"D"D2D|"A7/e"E2F|"D/f+"d2c|"G"B2A|"G"B2A|"A7"Bc2|"D"d3|"A7"ABc||
"D"df2|"A"e2d|"G"Bd2|"D"A2F|"D"A2A|"G"g2f|"E7/g+"f3|"A7"e2a|
"D"fa2|"D7"f2d|"G"Bd2|"D"A2F|"G"A2A|"A7"B2c|"D"d3-|"D"d2||


